assets/footer/sosmed/tiktok-svgrepo-com (1).svg

<?xml version="1.0" encoding="utf-8"?><!-- Uploaded to: SVG Repo, www.svgrepo.com, Generator: SVG Repo Mixer Tools -->
<svg width="800px" height="800px" viewBox="0 0 32 32" fill="none" xmlns="http://www.w3.org/2000/svg">
<path d="M8.45095 19.7926C8.60723 18.4987 9.1379 17.7743 10.1379 17.0317C11.5688 16.0259 13.3561 16.5948 13.3561 16.5948V13.2197C13.7907 13.2085 14.2254 13.2343 14.6551 13.2966V17.6401C14.6551 17.6401 12.8683 17.0712 11.4375 18.0775C10.438 18.8196 9.90623 19.5446 9.7505 20.8385C9.74562 21.5411 9.87747 22.4595 10.4847 23.2536C10.3345 23.1766 10.1815 23.0889 10.0256 22.9905C8.68807 22.0923 8.44444 20.7449 8.45095 19.7926ZM22.0352 6.97898C21.0509 5.90039 20.6786 4.81139 20.5441 4.04639H21.7823C21.7823 4.04639 21.5354 6.05224 23.3347 8.02482L23.3597 8.05134C22.8747 7.7463 22.43 7.38624 22.0352 6.97898ZM28 10.0369V14.293C28 14.293 26.42 14.2312 25.2507 13.9337C23.6179 13.5176 22.5685 12.8795 22.5685 12.8795C22.5685 12.8795 21.8436 12.4245 21.785 12.3928V21.1817C21.785 21.6711 21.651 22.8932 21.2424 23.9125C20.709 25.246 19.8859 26.1212 19.7345 26.3001C19.7345 26.3001 18.7334 27.4832 16.9672 28.28C15.3752 28.9987 13.9774 28.9805 13.5596 28.9987C13.5596 28.9987 11.1434 29.0944 8.96915 27.6814C8.49898 27.3699 8.06011 27.0172 7.6582 26.6277L7.66906 26.6355C9.84383 28.0485 12.2595 27.9528 12.2595 27.9528C12.6779 27.9346 14.0756 27.9528 15.6671 27.2341C17.4317 26.4374 18.4344 25.2543 18.4344 25.2543C18.5842 25.0754 19.4111 24.2001 19.9423 22.8662C20.3498 21.8474 20.4849 20.6247 20.4849 20.1354V11.3475C20.5435 11.3797 21.2679 11.8347 21.2679 11.8347C21.2679 11.8347 22.3179 12.4734 23.9506 12.8889C25.1204 13.1864 26.7 13.2483 26.7 13.2483V9.91314C27.2404 10.0343 27.7011 10.0671 28 10.0369Z" fill="#EE1D52"/>
<path d="M26.7009 9.91314V13.2472C26.7009 13.2472 25.1213 13.1853 23.9515 12.8879C22.3188 12.4718 21.2688 11.8337 21.2688 11.8337C21.2688 11.8337 20.5444 11.3787 20.4858 11.3464V20.1364C20.4858 20.6258 20.3518 21.8484 19.9432 22.8672C19.4098 24.2012 18.5867 25.0764 18.4353 25.2553C18.4353 25.2553 17.4337 26.4384 15.668 27.2352C14.0765 27.9539 12.6788 27.9357 12.2604 27.9539C12.2604 27.9539 9.84473 28.0496 7.66995 26.6366L7.6591 26.6288C7.42949 26.4064 7.21336 26.1717 7.01177 25.9257C6.31777 25.0795 5.89237 24.0789 5.78547 23.7934C5.78529 23.7922 5.78529 23.791 5.78547 23.7898C5.61347 23.2937 5.25209 22.1022 5.30147 20.9482C5.38883 18.9122 6.10507 17.6625 6.29444 17.3494C6.79597 16.4957 7.44828 15.7318 8.22233 15.0919C8.90538 14.5396 9.6796 14.1002 10.5132 13.7917C11.4144 13.4295 12.3794 13.2353 13.3565 13.2197V16.5948C13.3565 16.5948 11.5691 16.028 10.1388 17.0317C9.13879 17.7743 8.60812 18.4987 8.45185 19.7926C8.44534 20.7449 8.68897 22.0923 10.0254 22.991C10.1813 23.0898 10.3343 23.1775 10.4845 23.2541C10.7179 23.5576 11.0021 23.8221 11.3255 24.0368C12.631 24.8632 13.7249 24.9209 15.1238 24.3842C16.0565 24.0254 16.7586 23.2167 17.0842 22.3206C17.2888 21.7611 17.2861 21.1978 17.2861 20.6154V4.04639H20.5417C20.6763 4.81139 21.0485 5.90039 22.0328 6.97898C22.4276 7.38624 22.8724 7.7463 23.3573 8.05134C23.5006 8.19955 24.2331 8.93231 25.1734 9.38216C25.6596 9.61469 26.1722 9.79285 26.7009 9.91314Z" fill="#000000"/>
<path d="M4.48926 22.7568V22.7594L4.57004 22.9784C4.56076 22.9529 4.53074 22.8754 4.48926 22.7568Z" fill="#69C9D0"/>
<path d="M10.5128 13.7916C9.67919 14.1002 8.90498 14.5396 8.22192 15.0918C7.44763 15.7332 6.79548 16.4987 6.29458 17.354C6.10521 17.6661 5.38897 18.9168 5.30161 20.9528C5.25223 22.1068 5.61361 23.2983 5.78561 23.7944C5.78543 23.7956 5.78543 23.7968 5.78561 23.798C5.89413 24.081 6.31791 25.0815 7.01191 25.9303C7.2135 26.1763 7.42963 26.4111 7.65924 26.6334C6.92357 26.1457 6.26746 25.5562 5.71236 24.8839C5.02433 24.0451 4.60001 23.0549 4.48932 22.7626C4.48919 22.7605 4.48919 22.7584 4.48932 22.7564V22.7527C4.31677 22.2571 3.95431 21.0651 4.00477 19.9096C4.09213 17.8736 4.80838 16.6239 4.99775 16.3108C5.4985 15.4553 6.15067 14.6898 6.92509 14.0486C7.608 13.4961 8.38225 13.0567 9.21598 12.7484C9.73602 12.5416 10.2778 12.3891 10.8319 12.2934C11.6669 12.1537 12.5198 12.1415 13.3588 12.2575V13.2196C12.3808 13.2349 11.4148 13.4291 10.5128 13.7916Z" fill="#69C9D0"/>
<path d="M20.5438 4.04635H17.2881V20.6159C17.2881 21.1983 17.2881 21.76 17.0863 22.3211C16.7575 23.2167 16.058 24.0253 15.1258 24.3842C13.7265 24.923 12.6326 24.8632 11.3276 24.0368C11.0036 23.823 10.7187 23.5594 10.4844 23.2567C11.5962 23.8251 12.5913 23.8152 13.8241 23.341C14.7558 22.9821 15.4563 22.1734 15.784 21.2774C15.9891 20.7178 15.9864 20.1546 15.9864 19.5726V3H20.4819C20.4819 3 20.4315 3.41188 20.5438 4.04635ZM26.7002 8.99104V9.9131C26.1725 9.79263 25.6609 9.61447 25.1755 9.38213C24.2352 8.93228 23.5026 8.19952 23.3594 8.0513C23.5256 8.1559 23.6981 8.25106 23.8759 8.33629C25.0192 8.88339 26.1451 9.04669 26.7002 8.99104Z" fill="#69C9D0"/>
</svg>

<svg xmlns="http://www.w3.org/2000/svg" width="800" height="800" fill="none" viewBox="0 0 32 32"><path fill="#ee1d52" d="M8.451 19.793c.156-1.294.687-2.019 1.687-2.761 1.43-1.006 3.218-.437 3.218-.437V13.22q.654-.017 1.3.077v4.343s-1.788-.569-3.219.438c-.999.742-1.53 1.467-1.686 2.76-.005.703.126 1.621.734 2.416a6 6 0 0 1-.46-.264c-1.337-.898-1.58-2.245-1.574-3.197M22.035 6.979c-.984-1.079-1.356-2.168-1.49-2.933h1.237s-.247 2.006 1.553 3.979l.025.026a7 7 0 0 1-1.325-1.072M28 10.037v4.256s-1.58-.062-2.75-.36c-1.632-.415-2.681-1.053-2.681-1.053s-.725-.456-.784-.487v8.789c0 .49-.134 1.711-.543 2.73-.533 1.334-1.356 2.21-1.508 2.388 0 0-1 1.183-2.767 1.98-1.592.719-2.99.7-3.407.719 0 0-2.417.095-4.59-1.318a9 9 0 0 1-1.312-1.053l.011.008c2.175 1.413 4.59 1.317 4.59 1.317.419-.018 1.817 0 3.408-.719 1.765-.797 2.767-1.98 2.767-1.98.15-.179.977-1.054 1.508-2.388.408-1.019.543-2.241.543-2.73v-8.788c.059.032.783.487.783.487s1.05.638 2.683 1.054c1.17.297 2.749.36 2.749.36V9.912c.54.121 1.001.154 1.3.124"/><path fill="#000" d="M26.7 9.913v3.334s-1.579-.062-2.748-.36c-1.633-.415-2.683-1.053-2.683-1.053s-.725-.455-.783-.488v8.79c0 .49-.134 1.712-.543 2.731-.533 1.334-1.356 2.21-1.508 2.388 0 0-1.001 1.183-2.767 1.98-1.591.719-2.99.7-3.408.719 0 0-2.415.096-4.59-1.317l-.01-.008a8 8 0 0 1-.648-.703c-.694-.846-1.12-1.847-1.227-2.133v-.003c-.172-.496-.533-1.688-.484-2.842.088-2.036.804-3.285.993-3.599a8.6 8.6 0 0 1 1.928-2.257 8.1 8.1 0 0 1 2.291-1.3 8 8 0 0 1 2.844-.572v3.375s-1.788-.567-3.218.437c-1 .742-1.53 1.467-1.687 2.76-.007.953.237 2.3 1.573 3.199q.235.148.46.263a3.5 3.5 0 0 0 .84.783c1.306.826 2.4.884 3.799.347.932-.359 1.635-1.167 1.96-2.063.205-.56.202-1.123.202-1.706V4.046h3.256c.134.765.506 1.854 1.49 2.933.396.407.84.767 1.325 1.072.144.149.876.881 1.816 1.331.487.233 1 .41 1.528.531"/><path fill="#69c9d0" d="M4.49 22.757v.002l.08.22a6 6 0 0 1-.08-.222"/><path fill="#69c9d0" d="M10.513 13.792a8.1 8.1 0 0 0-2.291 1.3 8.6 8.6 0 0 0-1.927 2.262c-.19.312-.906 1.563-.993 3.599-.05 1.154.312 2.345.484 2.841v.004c.108.283.532 1.284 1.226 2.132q.303.37.647.703a8.9 8.9 0 0 1-1.947-1.75c-.688-.838-1.112-1.828-1.223-2.12v-.01c-.172-.496-.535-1.688-.484-2.843.087-2.036.803-3.286.993-3.6a8.5 8.5 0 0 1 1.927-2.261 8.1 8.1 0 0 1 2.291-1.3 8 8 0 0 1 1.616-.456 8.4 8.4 0 0 1 2.527-.035v.962a8 8 0 0 0-2.846.572"/><path fill="#69c9d0" d="M20.544 4.046h-3.256v16.57c0 .582 0 1.144-.202 1.705-.328.896-1.028 1.704-1.96 2.063-1.4.539-2.493.48-3.798-.347a3.5 3.5 0 0 1-.844-.78c1.112.568 2.107.558 3.34.084.932-.359 1.632-1.168 1.96-2.064.205-.56.202-1.122.202-1.704V3h4.496s-.05.412.062 1.046M26.7 8.991v.922a7.3 7.3 0 0 1-1.524-.53c-.94-.45-1.673-1.183-1.817-1.332q.251.157.517.285c1.143.547 2.27.71 2.824.655"/></svg>
